inst/assets/svg/wi-night-rain-wind.svg

<?xml version="1.0" encoding="UTF-8"?>
<svg xmlns="http://www.w3.org/2000/svg" xmlns:xlink="http://www.w3.org/1999/xlink" width="30pt" height="30pt" viewBox="0 0 30 30" version="1.1">
<g id="surface746">
<path style=" stroke:none;fill-rule:nonzero;fill:rgb(0%,0%,0%);fill-opacity:1;" d="M 4.109375 17.019531 C 4.109375 18.148438 4.441406 19.148438 5.109375 20.03125 C 5.78125 20.910156 6.648438 21.511719 7.730469 21.828125 C 7.828125 21.839844 7.910156 21.820313 7.980469 21.75 L 9.109375 20.289063 C 8.21875 20.289063 7.449219 19.96875 6.800781 19.328125 C 6.148438 18.691406 5.828125 17.921875 5.828125 17.019531 C 5.828125 16.160156 6.121094 15.410156 6.691406 14.78125 C 7.261719 14.148438 7.980469 13.800781 8.828125 13.730469 L 9.351563 13.660156 C 9.460938 13.660156 9.511719 13.609375 9.511719 13.519531 L 9.578125 12.960938 C 9.699219 11.859375 10.171875 10.941406 10.988281 10.199219 C 11.808594 9.460938 12.769531 9.089844 13.871094 9.089844 C 14.980469 9.089844 15.949219 9.460938 16.78125 10.191406 C 17.609375 10.921875 18.078125 11.828125 18.179688 12.929688 L 18.25 13.519531 C 18.269531 13.628906 18.339844 13.691406 18.460938 13.691406 L 20.089844 13.691406 C 20.988281 13.691406 21.761719 14.019531 22.410156 14.671875 C 23.058594 15.328125 23.390625 16.109375 23.390625 17.019531 C 23.390625 17.859375 23.109375 18.601563 22.539063 19.230469 C 21.96875 19.859375 21.269531 20.210938 20.441406 20.289063 C 19.960938 20.289063 19.660156 20.378906 19.53125 20.570313 L 17.351563 22.96875 C 17.191406 23.148438 17.128906 23.359375 17.160156 23.589844 C 17.191406 23.820313 17.289063 24.039063 17.46875 24.21875 C 17.601563 24.390625 17.800781 24.46875 18.058594 24.449219 C 18.320313 24.429688 18.519531 24.300781 18.660156 24.070313 L 20.640625 22 C 21.460938 21.921875 22.21875 21.648438 22.921875 21.179688 C 23.609375 20.710938 24.160156 20.109375 24.570313 19.378906 C 24.980469 18.648438 25.171875 17.859375 25.171875 17.019531 C 25.171875 16.390625 25.03125 15.699219 24.738281 14.941406 C 25.511719 13.960938 25.890625 12.859375 25.890625 11.621094 C 25.890625 10.640625 25.648438 9.75 25.179688 8.929688 C 24.699219 8.109375 24.058594 7.46875 23.238281 7 C 22.421875 6.53125 21.53125 6.300781 20.558594 6.300781 C 18.988281 6.300781 17.691406 6.871094 16.660156 8.011719 C 15.789063 7.578125 14.871094 7.359375 13.890625 7.359375 C 12.460938 7.359375 11.191406 7.800781 10.101563 8.691406 C 9.011719 9.578125 8.300781 10.71875 7.988281 12.121094 C 6.851563 12.378906 5.921875 12.960938 5.199219 13.871094 C 4.480469 14.78125 4.109375 15.828125 4.109375 17.019531 Z M 7.910156 24.519531 C 7.910156 24.660156 7.929688 24.769531 7.960938 24.839844 C 8.039063 25.050781 8.191406 25.199219 8.398438 25.28125 C 8.628906 25.378906 8.851563 25.390625 9.078125 25.300781 C 9.308594 25.21875 9.460938 25.058594 9.53125 24.851563 C 9.628906 24.628906 9.640625 24.410156 9.550781 24.179688 C 9.460938 23.949219 9.308594 23.800781 9.089844 23.71875 C 8.859375 23.640625 8.648438 23.640625 8.429688 23.71875 C 8.21875 23.800781 8.058594 23.949219 7.960938 24.171875 C 7.929688 24.25 7.910156 24.371094 7.910156 24.519531 Z M 9.75 22.078125 C 9.75 22.308594 9.859375 22.53125 10.070313 22.75 C 10.5 23.109375 10.910156 23.058594 11.328125 22.601563 L 13.519531 20.160156 C 13.671875 19.988281 13.730469 19.78125 13.699219 19.550781 C 13.671875 19.320313 13.570313 19.128906 13.390625 18.980469 C 13.210938 18.839844 13 18.789063 12.761719 18.820313 C 12.519531 18.851563 12.328125 18.949219 12.171875 19.109375 L 9.96875 21.488281 C 9.820313 21.699219 9.75 21.898438 9.75 22.078125 Z M 10.390625 27.011719 C 10.390625 27.128906 10.421875 27.238281 10.46875 27.328125 C 10.558594 27.558594 10.691406 27.710938 10.878906 27.789063 C 11 27.839844 11.121094 27.859375 11.25 27.859375 C 11.320313 27.859375 11.429688 27.839844 11.570313 27.800781 C 11.78125 27.710938 11.929688 27.558594 12.011719 27.351563 C 12.109375 27.148438 12.121094 26.941406 12.03125 26.710938 C 11.949219 26.480469 11.800781 26.328125 11.578125 26.25 C 11.359375 26.140625 11.140625 26.128906 10.921875 26.21875 C 10.710938 26.308594 10.539063 26.46875 10.429688 26.699219 C 10.410156 26.800781 10.390625 26.898438 10.390625 27.011719 Z M 12.058594 24.621094 L 12.058594 24.75 C 12.078125 24.988281 12.179688 25.191406 12.378906 25.351563 C 12.519531 25.53125 12.71875 25.609375 12.980469 25.589844 C 13.230469 25.570313 13.429688 25.441406 13.578125 25.210938 L 17.800781 20.300781 C 17.960938 20.121094 18.019531 19.910156 18 19.660156 C 17.980469 19.421875 17.859375 19.230469 17.648438 19.089844 C 17.480469 18.949219 17.269531 18.878906 17.050781 18.898438 C 16.820313 18.921875 16.628906 19.019531 16.46875 19.199219 L 12.25 24.121094 C 12.121094 24.25 12.058594 24.410156 12.058594 24.621094 Z M 15.691406 25.449219 C 15.621094 25.679688 15.621094 25.878906 15.691406 26.070313 C 15.78125 26.289063 15.929688 26.449219 16.140625 26.558594 C 16.25 26.609375 16.371094 26.628906 16.5 26.628906 C 16.558594 26.628906 16.660156 26.609375 16.800781 26.570313 C 17.03125 26.480469 17.179688 26.328125 17.261719 26.109375 C 17.359375 25.878906 17.371094 25.671875 17.289063 25.449219 C 17.210938 25.238281 17.058594 25.089844 16.851563 25.011719 C 16.621094 24.898438 16.398438 24.890625 16.191406 24.980469 C 15.96875 25.070313 15.800781 25.230469 15.691406 25.449219 Z M 18.089844 9.03125 C 18.769531 8.351563 19.601563 8.011719 20.570313 8.011719 C 21.578125 8.011719 22.429688 8.359375 23.128906 9.058594 C 23.828125 9.761719 24.179688 10.621094 24.179688 11.621094 C 24.179688 12.238281 24.011719 12.851563 23.660156 13.441406 C 22.691406 12.460938 21.5 11.980469 20.109375 11.980469 L 19.800781 11.980469 C 19.550781 10.839844 18.980469 9.859375 18.089844 9.03125 Z M 18.089844 9.03125 "/>
</g>
</svg>

<?xml version="1.0" encoding="utf-8"?>
<!-- Generator: Adobe Illustrator 22.0.1, SVG Export Plug-In . SVG Version: 6.00 Build 0)  -->
<svg version="1.1" id="Layer_1" xmlns="http://www.w3.org/2000/svg" xmlns:xlink="http://www.w3.org/1999/xlink" x="0px" y="0px"
	 viewBox="0 0 30 30" style="enable-background:new 0 0 30 30;" xml:space="preserve">
<path d="M4.11,17.02c0,1.13,0.33,2.13,1,3.01c0.67,0.88,1.54,1.48,2.62,1.8c0.1,0.01,0.18-0.01,0.25-0.08l1.13-1.46
	c-0.89,0-1.66-0.32-2.31-0.96s-0.97-1.41-0.97-2.31c0-0.86,0.29-1.61,0.86-2.24s1.29-0.98,2.14-1.05l0.52-0.07
	c0.11,0,0.16-0.05,0.16-0.14l0.07-0.56c0.12-1.1,0.59-2.02,1.41-2.76c0.82-0.74,1.78-1.11,2.88-1.11c1.11,0,2.08,0.37,2.91,1.1
	c0.83,0.73,1.3,1.64,1.4,2.74l0.07,0.59c0.02,0.11,0.09,0.17,0.21,0.17h1.63c0.9,0,1.67,0.33,2.32,0.98
	c0.65,0.66,0.98,1.44,0.98,2.35c0,0.84-0.28,1.58-0.85,2.21c-0.57,0.63-1.27,0.98-2.1,1.06c-0.48,0-0.78,0.09-0.91,0.28l-2.18,2.4
	c-0.16,0.18-0.22,0.39-0.19,0.62c0.03,0.23,0.13,0.45,0.31,0.63c0.13,0.17,0.33,0.25,0.59,0.23s0.46-0.15,0.6-0.38L20.64,22
	c0.82-0.08,1.58-0.35,2.28-0.82c0.69-0.47,1.24-1.07,1.65-1.8s0.6-1.52,0.6-2.36c0-0.63-0.14-1.32-0.43-2.08
	c0.77-0.98,1.15-2.08,1.15-3.32c0-0.98-0.24-1.87-0.71-2.69c-0.48-0.82-1.12-1.46-1.94-1.93S21.53,6.3,20.56,6.3
	c-1.57,0-2.87,0.57-3.9,1.71c-0.87-0.43-1.79-0.65-2.77-0.65c-1.43,0-2.7,0.44-3.79,1.33s-1.8,2.03-2.11,3.43
	c-1.14,0.26-2.07,0.84-2.79,1.75S4.11,15.83,4.11,17.02z M7.91,24.52c0,0.14,0.02,0.25,0.05,0.32c0.08,0.21,0.23,0.36,0.44,0.44
	c0.23,0.1,0.45,0.11,0.68,0.02c0.23-0.08,0.38-0.24,0.45-0.45c0.1-0.22,0.11-0.44,0.02-0.67c-0.09-0.23-0.24-0.38-0.46-0.46
	c-0.23-0.08-0.44-0.08-0.66,0c-0.21,0.08-0.37,0.23-0.47,0.45C7.93,24.25,7.91,24.37,7.91,24.52z M9.75,22.08
	c0,0.23,0.11,0.45,0.32,0.67c0.43,0.36,0.84,0.31,1.26-0.15l2.19-2.44c0.15-0.17,0.21-0.38,0.18-0.61
	c-0.03-0.23-0.13-0.42-0.31-0.57c-0.18-0.14-0.39-0.19-0.63-0.16c-0.24,0.03-0.43,0.13-0.59,0.29l-2.2,2.38
	C9.82,21.7,9.75,21.9,9.75,22.08z M10.39,27.01c0,0.12,0.03,0.23,0.08,0.32c0.09,0.23,0.22,0.38,0.41,0.46
	c0.12,0.05,0.24,0.07,0.37,0.07c0.07,0,0.18-0.02,0.32-0.06c0.21-0.09,0.36-0.24,0.44-0.45c0.1-0.2,0.11-0.41,0.02-0.64
	c-0.08-0.23-0.23-0.38-0.45-0.46c-0.22-0.11-0.44-0.12-0.66-0.03c-0.21,0.09-0.38,0.25-0.49,0.48C10.41,26.8,10.39,26.9,10.39,27.01
	z M12.06,24.62v0.13c0.02,0.24,0.12,0.44,0.32,0.6c0.14,0.18,0.34,0.26,0.6,0.24c0.25-0.02,0.45-0.15,0.6-0.38l4.22-4.91
	c0.16-0.18,0.22-0.39,0.2-0.64c-0.02-0.24-0.14-0.43-0.35-0.57c-0.17-0.14-0.38-0.21-0.6-0.19c-0.23,0.02-0.42,0.12-0.58,0.3
	l-4.22,4.92C12.12,24.25,12.06,24.41,12.06,24.62z M15.69,25.45c-0.07,0.23-0.07,0.43,0,0.62c0.09,0.22,0.24,0.38,0.45,0.49
	c0.11,0.05,0.23,0.07,0.36,0.07c0.06,0,0.16-0.02,0.3-0.06c0.23-0.09,0.38-0.24,0.46-0.46c0.1-0.23,0.11-0.44,0.03-0.66
	c-0.08-0.21-0.23-0.36-0.44-0.44c-0.23-0.11-0.45-0.12-0.66-0.03C15.97,25.07,15.8,25.23,15.69,25.45z M18.09,9.03
	c0.68-0.68,1.51-1.02,2.48-1.02c1.01,0,1.86,0.35,2.56,1.05s1.05,1.56,1.05,2.56c0,0.62-0.17,1.23-0.52,1.82
	c-0.97-0.98-2.16-1.46-3.55-1.46H19.8C19.55,10.84,18.98,9.86,18.09,9.03z"/>
</svg>
